wp-content/plugins/google-analytics-for-wordpress/lite/assets/vue/img/yir-star.svg

<svg width="29" height="28" viewBox="0 0 29 28" fill="none" xmlns="http://www.w3.org/2000/svg">
    <path d="M14.5717 22.1742L23.3267 27.4584L21.0034 17.4992L28.7384 10.7984L18.5525 9.93425L14.5717 0.541748L10.5909 9.93425L0.405029 10.7984L8.14003 17.4992L5.8167 27.4584L14.5717 22.1742Z" fill="#F2994A"/>
</svg>

<svg width="29" height="28" fill="none" xmlns="http://www.w3.org/2000/svg"><path d="M14.572 22.174l8.755 5.284-2.324-9.959 7.735-6.7-10.186-.865-3.98-9.392-3.981 9.392-10.186.864L8.14 17.5l-2.323 9.96 8.755-5.285z" fill="#F2994A"/></svg>
